symbols/web/business_center/materialsymbolsrounded/business_center_wght100grad200_48px.svg

<svg xmlns="http://www.w3.org/2000/svg" height="48" width="48"><path d="M18.05 14v-2.6q0-1.4 1-2.375 1-.975 2.35-.975h5.2q1.4 0 2.375.975.975.975.975 2.375V14h8.9q1.4 0 2.375 1 .975 1 .975 2.35V37.1q0 1.4-.975 2.375-.975.975-2.375.975H9.15q-1.4 0-2.375-.975Q5.8 38.5 5.8 37.1V17.35q0-1.35.975-2.35t2.375-1Zm1.75 0h8.4v-2.6q0-.6-.5-1.1-.5-.5-1.1-.5h-5.2q-.6 0-1.1.5-.5.5-.5 1.1Zm20.65 15.2h-12.8v1.1q0 .7-.475 1.175-.475.475-1.175.475h-3.95q-.7 0-1.175-.5-.475-.5-.475-1.15v-1.1H7.55v7.9q0 .6.5 1.1.5.5 1.1.5h29.7q.6 0 1.1-.5.5-.5.5-1.1Zm-18.3 1h3.75v-3.75h-3.75Zm-14.6-2.75H20.4v-1.1q0-.75.475-1.2.475-.45 1.175-.45H26q.75 0 1.2.475.45.475.45 1.175v1.1h12.8v-10.1q0-.6-.5-1.1-.5-.5-1.1-.5H9.15q-.6 0-1.1.5-.5.5-.5 1.1ZM24 28.3Z"/></svg>

<svg xmlns="http://www.w3.org/2000/svg" height="48" width="48"><path d="M18.05 14V11.4Q18.05 10 19.05 9.025Q20.05 8.05 21.4 8.05H26.6Q28 8.05 28.975 9.025Q29.95 10 29.95 11.4V14H38.85Q40.25 14 41.225 15Q42.2 16 42.2 17.35V37.1Q42.2 38.5 41.225 39.475Q40.25 40.45 38.85 40.45H9.15Q7.75 40.45 6.775 39.475Q5.8 38.5 5.8 37.1V17.35Q5.8 16 6.775 15Q7.75 14 9.15 14ZM19.8 14H28.2V11.4Q28.2 10.8 27.7 10.3Q27.2 9.8 26.6 9.8H21.4Q20.8 9.8 20.3 10.3Q19.8 10.8 19.8 11.4ZM40.45 29.2H27.65V30.3Q27.65 31 27.175 31.475Q26.7 31.95 26 31.95H22.05Q21.35 31.95 20.875 31.45Q20.4 30.95 20.4 30.3V29.2H7.55V37.1Q7.55 37.7 8.05 38.2Q8.55 38.7 9.15 38.7H38.85Q39.45 38.7 39.95 38.2Q40.45 37.7 40.45 37.1ZM22.15 30.2H25.9V26.45H22.15ZM7.55 27.45H20.4V26.35Q20.4 25.6 20.875 25.15Q21.35 24.7 22.05 24.7H26Q26.75 24.7 27.2 25.175Q27.65 25.65 27.65 26.35V27.45H40.45V17.35Q40.45 16.75 39.95 16.25Q39.45 15.75 38.85 15.75H9.15Q8.55 15.75 8.05 16.25Q7.55 16.75 7.55 17.35ZM24 28.3Q24 28.3 24 28.3Q24 28.3 24 28.3Q24 28.3 24 28.3Q24 28.3 24 28.3Q24 28.3 24 28.3Q24 28.3 24 28.3Q24 28.3 24 28.3Q24 28.3 24 28.3Z"/></svg>
